packages/icons/brands/Uniswap.svg

<svg width="25" height="25" viewBox="0 0 25 25" xmlns="http://www.w3.org/2000/svg">
<g>
        <circle cx="12.5" cy="12.1929" r="12" fill="url(#paint0_linear_1533_34913)" />
        <circle opacity="0.5" cx="12.5" cy="12.1929" r="10.9688" fill="white" />
        <path
            d="M9.95116 5.74442C9.76307 5.7154 9.75506 5.7124 9.84411 5.6994C10.0142 5.67338 10.4144 5.7084 10.6905 5.77343C11.3349 5.92551 11.9212 6.31571 12.5475 7.00906L12.7136 7.19315L12.9517 7.15513C13.9542 6.99505 14.9727 7.12212 15.8261 7.51331C16.0613 7.62137 16.4314 7.83548 16.4765 7.8905C16.4925 7.90851 16.5195 8.02057 16.5365 8.14163C16.6005 8.55984 16.5695 8.879 16.4404 9.11813C16.3704 9.24819 16.3664 9.28921 16.4134 9.40127C16.4359 9.44742 16.4709 9.48633 16.5144 9.51357C16.5579 9.54081 16.6082 9.55529 16.6596 9.55535C16.8717 9.55535 17.0998 9.21517 17.2048 8.74093L17.2469 8.55184L17.3299 8.64589C17.7871 9.16015 18.1453 9.8605 18.2063 10.3588L18.2223 10.4888L18.1463 10.3708C18.0358 10.1899 17.8873 10.0353 17.7111 9.91753C17.4049 9.71643 17.0808 9.64739 16.2243 9.60237C15.4499 9.56235 15.0117 9.49632 14.5775 9.35525C13.8381 9.11512 13.4659 8.79696 12.5875 7.65238C12.1973 7.14313 11.9572 6.86198 11.7171 6.63587C11.1718 6.12061 10.6365 5.85047 9.95116 5.74542V5.74442Z"
            fill="#FE007A"
        />
        <path
            d="M16.6526 6.87998C16.6716 6.53981 16.7176 6.3147 16.8117 6.10959C16.8323 6.05776 16.8581 6.00815 16.8887 5.96152C16.8937 5.96152 16.8777 6.02155 16.8527 6.09459C16.7847 6.29469 16.7726 6.56683 16.8207 6.88399C16.8807 7.28619 16.9137 7.34422 17.3409 7.77844C17.542 7.98254 17.7752 8.23867 17.8602 8.34973L18.0143 8.54983L17.8602 8.40676C17.6721 8.23167 17.2399 7.88949 17.1438 7.84047C17.0798 7.80845 17.0698 7.80845 17.0308 7.84747C16.9938 7.88349 16.9868 7.93752 16.9808 8.19365C16.9738 8.59285 16.9187 8.84898 16.7867 9.10411C16.7156 9.24418 16.7046 9.21417 16.7686 9.05709C16.8167 8.94103 16.8217 8.889 16.8217 8.50281C16.8217 7.72741 16.7276 7.54032 16.1844 7.22216C16.0205 7.12751 15.8522 7.0407 15.6801 6.96203C15.5953 6.92794 15.513 6.88781 15.434 6.84196C15.449 6.82696 15.9792 6.98103 16.1924 7.06208C16.5105 7.18414 16.5625 7.19915 16.6016 7.18514C16.6266 7.17513 16.6396 7.1001 16.6516 6.87998H16.6526ZM10.3164 8.20766C9.93519 7.68539 9.69807 6.88399 9.75009 6.28468L9.7651 6.09959L9.85215 6.1146C10.0162 6.14461 10.2974 6.24866 10.4294 6.3287C10.7906 6.54682 10.9477 6.83396 11.1068 7.57233C11.1538 7.78844 11.2148 8.03257 11.2428 8.11661C11.2879 8.24968 11.46 8.56083 11.599 8.76294C11.6991 8.90901 11.633 8.97805 11.4109 8.95804C11.0718 8.92802 10.6125 8.61286 10.3164 8.20766ZM16.1884 12.0966C14.4034 11.3833 13.7751 10.7629 13.7751 9.71742C13.7751 9.56334 13.7801 9.43728 13.7871 9.43728C13.7931 9.43728 13.8622 9.4873 13.9402 9.55034C14.3024 9.83848 14.7076 9.96154 15.8302 10.1246C16.4905 10.2207 16.8607 10.2977 17.2039 10.4108C18.2944 10.77 18.9678 11.4983 19.1288 12.4918C19.1749 12.78 19.1489 13.3202 19.0718 13.6054C19.0118 13.8305 18.8297 14.2357 18.7817 14.2517C18.7677 14.2567 18.7547 14.2057 18.7517 14.1357C18.7336 13.7635 18.5435 13.4003 18.2254 13.1281C17.8632 12.819 17.377 12.5719 16.1884 12.0966ZM14.9357 12.3938C14.9148 12.2671 14.886 12.1418 14.8497 12.0186L14.8037 11.8835L14.8887 11.9786C15.0058 12.1086 15.0988 12.2757 15.1768 12.4988C15.2369 12.6689 15.2429 12.7189 15.2429 12.9951C15.2429 13.2662 15.2349 13.3232 15.1788 13.4753C15.102 13.7008 14.9731 13.9051 14.8027 14.0716C14.4765 14.4018 14.0573 14.5839 13.452 14.6599C13.3469 14.6729 13.0408 14.6949 12.7716 14.7089C12.0923 14.744 11.6451 14.817 11.2439 14.9571C11.2075 14.9731 11.1685 14.9822 11.1288 14.9841C11.1128 14.9681 11.3869 14.806 11.612 14.6979C11.9302 14.5449 12.2474 14.4618 12.9577 14.3448C13.3079 14.2867 13.6711 14.2157 13.7631 14.1877C14.6316 13.9235 15.0788 13.2402 14.9357 12.3938Z"
            fill="#FE007A"
        />
        <path
            d="M15.7541 13.8385C15.517 13.3323 15.462 12.843 15.5921 12.3868C15.6061 12.3368 15.6281 12.2977 15.6421 12.2977C15.6551 12.2977 15.7121 12.3277 15.7661 12.3648C15.8762 12.4378 16.0943 12.5609 16.6786 12.877C17.407 13.2722 17.8232 13.5774 18.1053 13.9276C18.3525 14.2327 18.5055 14.5819 18.5796 15.0061C18.6216 15.2462 18.5966 15.8265 18.5345 16.0686C18.3384 16.833 17.8842 17.4333 17.2339 17.7835C17.1388 17.8345 17.0538 17.8766 17.0438 17.8766C17.0348 17.8766 17.0698 17.7895 17.1208 17.6825C17.3399 17.2282 17.365 16.787 17.1999 16.2958C17.0978 15.9946 16.8917 15.6274 16.4755 15.0061C15.9913 14.2857 15.8732 14.0926 15.7541 13.8385ZM9.04874 16.5729C9.71208 16.0166 10.5355 15.6224 11.2869 15.5004C11.6739 15.4507 12.0665 15.4659 12.4485 15.5454C12.9287 15.6674 13.3589 15.9416 13.582 16.2667C13.8001 16.5859 13.8942 16.863 13.9922 17.4814C14.0303 17.7245 14.0723 17.9696 14.0843 18.0246C14.1573 18.3448 14.3004 18.6009 14.4765 18.729C14.7566 18.9331 15.2409 18.9461 15.7161 18.762C15.7655 18.7393 15.8176 18.7231 15.8712 18.714C15.8882 18.731 15.6491 18.8901 15.481 18.9741C15.2816 19.0802 15.0585 19.1339 14.8327 19.1302C14.3975 19.1302 14.0363 18.9101 13.7341 18.4619C13.6233 18.2721 13.5244 18.0756 13.438 17.8736C13.1198 17.1522 12.9627 16.9331 12.5935 16.692C12.2714 16.4819 11.8562 16.4448 11.544 16.5969C11.1338 16.797 11.0197 17.3173 11.3139 17.6474C11.4513 17.7893 11.6311 17.8827 11.8261 17.9136C11.9036 17.9242 11.9825 17.918 12.0574 17.8955C12.1323 17.8729 12.2014 17.8346 12.2602 17.7829C12.3189 17.7313 12.3659 17.6677 12.3978 17.5963C12.4298 17.5249 12.446 17.4475 12.4455 17.3693C12.4455 17.1522 12.3614 17.0291 12.1503 16.9331C11.8612 16.804 11.552 16.9551 11.553 17.2242C11.553 17.3393 11.604 17.4113 11.7201 17.4644C11.7941 17.4974 11.7961 17.4994 11.7351 17.4874C11.471 17.4323 11.4089 17.1152 11.621 16.9051C11.8772 16.6529 12.4054 16.764 12.5865 17.1092C12.6626 17.2542 12.6716 17.5424 12.6055 17.7165C12.4555 18.1067 12.0232 18.3118 11.583 18.1997C11.2829 18.1237 11.1618 18.0416 10.8006 17.6725C10.1733 17.0301 9.93019 16.9051 9.02573 16.765L8.85164 16.738L9.04874 16.5729Z"
            fill="#FE007A"
        />
        <path
            fill-rule="evenodd"
            clip-rule="evenodd"
            d="M6.10516 5.07707C8.20022 7.60435 9.64395 8.64687 9.80403 8.86698C9.9361 9.04908 9.88608 9.21316 9.65996 9.34122C9.49916 9.42201 9.32413 9.47061 9.1447 9.4843C8.99763 9.4843 8.9466 9.42827 8.9466 9.42827C8.86156 9.34823 8.81353 9.36224 8.37631 8.59084C8.00459 8.01231 7.62839 7.43667 7.24774 6.86397C7.21572 6.83396 7.21673 6.83396 8.31528 8.78794C8.49237 9.19515 8.3503 9.34423 8.3503 9.40226C8.3503 9.52031 8.31728 9.58235 8.17121 9.74543C7.92708 10.0156 7.81803 10.3197 7.73899 10.949C7.65095 11.6544 7.40282 12.1526 6.71447 13.0061C6.31227 13.5053 6.24623 13.5964 6.14418 13.7985C6.01612 14.0516 5.9811 14.1937 5.96709 14.5128C5.95209 14.852 5.9811 15.0701 6.08515 15.3933C6.1752 15.6774 6.27125 15.8635 6.51437 16.2377C6.72448 16.5609 6.84454 16.801 6.84454 16.895C6.84454 16.9691 6.85854 16.9691 7.18471 16.896C7.9611 16.722 8.59242 16.4158 8.9476 16.0386C9.16771 15.8055 9.21874 15.6774 9.22074 15.3583C9.22174 15.1502 9.21474 15.1061 9.15771 14.9861C9.06566 14.791 8.89758 14.6279 8.52739 14.3758C8.04114 14.0456 7.83304 13.7805 7.77701 13.4153C7.72898 13.1151 7.78401 12.904 8.05215 12.3447C8.33029 11.7645 8.39932 11.5173 8.44635 10.934C8.47636 10.5568 8.51738 10.4078 8.62644 10.2877C8.7405 10.1636 8.84255 10.1216 9.12469 10.0836C9.58392 10.0206 9.87507 9.90351 10.1152 9.6834C10.2114 9.60396 10.2891 9.50437 10.3427 9.39166C10.3963 9.27895 10.4245 9.15586 10.4253 9.03107L10.4354 8.82096L10.3183 8.68689C9.89708 8.19865 5.82302 4.69287 5.79701 4.69287C5.792 4.69287 5.93007 4.86596 6.10516 5.07707ZM7.08166 14.897C7.12756 14.816 7.14121 14.7206 7.11988 14.6299C7.09855 14.5392 7.04382 14.4599 6.9666 14.4078C6.81652 14.3077 6.5814 14.3558 6.5814 14.4848C6.5814 14.5248 6.60341 14.5539 6.65344 14.5789C6.73748 14.6219 6.74349 14.6699 6.67745 14.769C6.61042 14.868 6.61642 14.9551 6.69246 15.0151C6.81552 15.1101 6.98961 15.0581 7.08166 14.897ZM10.7245 10.1947C10.5094 10.2597 10.3003 10.4868 10.2343 10.7249C10.1952 10.87 10.2182 11.1251 10.2773 11.2032C10.3733 11.3302 10.4654 11.3632 10.7165 11.3622C11.2067 11.3592 11.633 11.1501 11.683 10.888C11.723 10.6739 11.5359 10.3777 11.2778 10.2467C11.1024 10.1755 10.91 10.1574 10.7245 10.1947ZM11.2988 10.6399C11.3738 10.5328 11.3408 10.4178 11.2117 10.3397C10.9676 10.1907 10.5964 10.3137 10.5964 10.5438C10.5964 10.6589 10.7895 10.784 10.9666 10.784C11.0847 10.784 11.2468 10.7139 11.2988 10.6399Z"
            fill="#FE007A"
        />
        <defs>
            <linearGradient
                id="paint0_linear_1533_34913"
                x1="0.5"
                y1="0.192871"
                x2="24.5"
                y2="24.1929"
                gradient-units="userSpaceOnUse">
                <stop stop-color="#FFFBFD" />
                <stop offset="1" stop-color="#FCBCDB" />
            </linearGradient>
        </defs>
    </g>
</svg>

<svg xmlns="http://www.w3.org/2000/svg" viewBox="0 0 25 25">
    <circle cx="12.5" cy="12.193" r="12" fill="url(#Uniswap_svg__a)"/>
    <circle cx="12.5" cy="12.193" r="10.969" fill="#fff" opacity=".5"/>
    <path fill="#FE007A" d="M9.951 5.744c-.188-.029-.196-.032-.107-.045.17-.026.57.01.847.074.644.153 1.23.543 1.856 1.236l.167.184.238-.038c1.002-.16 2.02-.033 2.874.358.235.108.605.322.65.378a.89.89 0 0 1 .06.25c.064.419.034.738-.096.977-.07.13-.074.171-.027.283a.274.274 0 0 0 .247.154c.212 0 .44-.34.545-.814l.042-.19.083.095c.457.514.815 1.214.876 1.713l.016.13-.076-.118a1.462 1.462 0 0 0-.435-.453c-.306-.202-.63-.27-1.487-.316-.774-.04-1.212-.106-1.646-.247-.74-.24-1.112-.558-1.99-1.703-.39-.509-.63-.79-.87-1.016-.546-.515-1.082-.786-1.767-.89v-.002Z"/>
    <path fill="#FE007A" d="M16.653 6.88c.019-.34.065-.565.159-.77a.826.826 0 0 1 .077-.148c.005 0-.011.06-.036.133-.068.2-.08.472-.032.789.06.402.093.46.52.894.201.205.434.46.52.572l.153.2-.154-.143c-.188-.175-.62-.518-.716-.567-.064-.032-.074-.032-.113.007-.037.036-.044.09-.05.347-.007.399-.062.655-.194.91-.071.14-.082.11-.018-.047.048-.116.053-.168.053-.554 0-.776-.094-.963-.638-1.28a5.979 5.979 0 0 0-.504-.261 1.909 1.909 0 0 1-.246-.12c.015-.015.545.139.758.22.319.122.37.137.41.123.025-.01.038-.085.05-.305Zm-6.337 1.328c-.38-.523-.618-1.324-.566-1.923l.015-.185.087.015c.164.03.445.134.577.214.362.218.519.505.678 1.243.047.216.108.46.136.545.045.133.217.444.356.646.1.146.034.215-.188.195-.34-.03-.798-.345-1.095-.75Zm5.872 3.889c-1.785-.714-2.413-1.334-2.413-2.38 0-.154.005-.28.012-.28.006 0 .075.05.153.113.362.288.768.412 1.89.575.66.096 1.03.173 1.374.286 1.09.359 1.764 1.087 1.925 2.08.046.289.02.83-.057 1.114-.06.226-.242.63-.29.647-.014.005-.027-.046-.03-.116-.018-.372-.208-.736-.527-1.008-.362-.309-.848-.556-2.037-1.031Zm-1.252.297a3.13 3.13 0 0 0-.086-.375l-.046-.136.085.096c.117.13.21.297.288.52.06.17.066.22.066.496 0 .271-.008.328-.064.48-.077.226-.206.43-.376.597-.327.33-.746.512-1.351.588-.105.013-.411.035-.68.049-.68.035-1.127.108-1.528.248a.324.324 0 0 1-.115.027c-.016-.016.258-.178.483-.286.318-.153.635-.236 1.346-.353.35-.058.713-.13.805-.157.869-.264 1.316-.948 1.173-1.794Z"/>
    <path fill="#FE007A" d="M15.754 13.838c-.237-.506-.292-.995-.162-1.451.014-.05.036-.09.05-.09.013 0 .07.03.124.068.11.073.328.196.913.512.728.395 1.144.7 1.426 1.05.247.306.4.655.475 1.08.042.24.017.82-.045 1.062-.197.764-.65 1.364-1.301 1.715a1.74 1.74 0 0 1-.19.093c-.01 0 .026-.087.077-.194.219-.455.244-.896.079-1.387-.102-.301-.308-.669-.724-1.29-.485-.72-.603-.913-.722-1.168ZM9.05 16.573c.663-.556 1.487-.95 2.238-1.073.387-.05.78-.034 1.161.045.48.122.91.397 1.134.722.218.319.312.596.41 1.214.038.243.08.489.092.544.073.32.216.576.393.704.28.204.764.217 1.24.033a.62.62 0 0 1 .154-.048c.017.017-.222.176-.39.26-.2.106-.422.16-.648.156-.435 0-.797-.22-1.099-.668-.11-.19-.21-.386-.296-.588-.318-.722-.475-.94-.845-1.182-.322-.21-.737-.247-1.049-.095-.41.2-.524.72-.23 1.05a.912.912 0 0 0 .512.267.547.547 0 0 0 .62-.545c0-.217-.085-.34-.296-.436-.289-.129-.598.022-.597.291 0 .115.051.187.167.24.074.033.076.035.015.023-.264-.055-.326-.372-.114-.582.256-.252.784-.141.965.204.077.145.086.433.02.607-.15.39-.583.596-1.023.484-.3-.076-.421-.158-.782-.527-.628-.643-.87-.768-1.775-.908l-.174-.027.197-.165Z"/>
    <path fill="#FE007A" fill-rule="evenodd" d="M6.105 5.077c2.095 2.527 3.539 3.57 3.699 3.79.132.182.082.346-.144.474-.16.081-.336.13-.515.143-.147 0-.198-.056-.198-.056-.085-.08-.133-.066-.57-.837a133.02 133.02 0 0 0-1.13-1.727c-.031-.03-.03-.03 1.068 1.924.177.407.035.556.035.614 0 .118-.033.18-.179.343-.244.27-.353.575-.432 1.204-.088.705-.336 1.204-1.025 2.057-.402.5-.468.59-.57.793-.128.253-.163.395-.177.714-.015.339.014.557.118.88.09.284.186.47.43.845.21.323.33.563.33.657 0 .074.014.074.34.001.776-.174 1.407-.48 1.763-.857.22-.234.27-.362.273-.68 0-.209-.006-.253-.063-.373-.092-.195-.26-.358-.63-.61-.487-.33-.695-.595-.751-.96-.048-.3.007-.512.275-1.071.278-.58.347-.828.394-1.411.03-.377.071-.526.18-.646.115-.124.217-.166.499-.204.459-.063.75-.18.99-.4a.854.854 0 0 0 .31-.653l.01-.21-.117-.134c-.42-.488-4.495-3.994-4.521-3.994-.005 0 .133.173.308.384Zm.977 9.82a.37.37 0 0 0-.115-.49c-.15-.1-.386-.051-.386.078 0 .04.022.069.072.094.084.043.09.09.024.19-.067.099-.06.186.015.246.124.095.298.043.39-.118Zm3.643-4.702c-.216.065-.425.292-.49.53-.04.145-.017.4.042.478.096.127.188.16.44.16.49-.004.916-.213.966-.475.04-.214-.147-.51-.405-.641a.965.965 0 0 0-.553-.052Zm.574.445c.075-.107.042-.222-.087-.3-.244-.15-.616-.026-.616.204 0 .115.194.24.37.24.119 0 .28-.07.333-.144Z" clip-rule="evenodd"/>
    <defs>
        <linearGradient id="Uniswap_svg__a" x1=".5" x2="24.5" y1=".193" y2="24.193">
            <stop stop-color="#FFFBFD"/>
            <stop offset="1" stop-color="#FCBCDB"/>
        </linearGradient>
    </defs>
</svg>
